resources/icons/brands_color/opensea.svg

<svg viewBox="0 0 41 40" fill="none" xmlns="http://www.w3.org/2000/svg">
  <g clip-path="url(#clip0_22075_67632)">
    <path
      d="M40.5 20C40.5 31.0451 31.5451 40 20.5 40C9.45493 40 0.5 31.0451 0.5 20C0.5 8.95493 9.45493 0 20.5 0C31.5474 0 40.5 8.95493 40.5 20Z"
      fill="#2081E2" />
    <path
      d="M10.3684 20.6721L10.4547 20.5365L15.6575 12.3973C15.7335 12.2781 15.9123 12.2905 15.9698 12.4199C16.839 14.3679 17.589 16.7905 17.2376 18.2988C17.0876 18.9193 16.6767 19.7597 16.2144 20.5365C16.1548 20.6495 16.089 20.7605 16.0192 20.8673C15.9863 20.9166 15.9308 20.9454 15.8712 20.9454H10.5204C10.3766 20.9454 10.2924 20.7892 10.3684 20.6721Z"
      fill="white" />
    <path
      d="M33.5562 22.1844V23.4728C33.5562 23.5467 33.511 23.6125 33.4453 23.6412C33.0425 23.8139 31.6637 24.4468 31.0904 25.244C29.6274 27.2803 28.5096 30.192 26.0109 30.192H15.5869C11.8923 30.192 8.89844 27.1879 8.89844 23.481V23.3618C8.89844 23.2632 8.97857 23.183 9.07724 23.183H14.8882C15.0033 23.183 15.0875 23.2899 15.0773 23.4029C15.0362 23.781 15.106 24.1673 15.2848 24.5187C15.63 25.2193 16.3451 25.657 17.1177 25.657H19.9944V23.4111H17.1506C17.0047 23.4111 16.9184 23.2426 17.0027 23.1234C17.0335 23.0762 17.0684 23.0268 17.1054 22.9714C17.3746 22.5892 17.7588 21.9953 18.141 21.3193C18.4019 20.8632 18.6547 20.3761 18.8581 19.8871C18.8992 19.7988 18.9321 19.7084 18.965 19.62C19.0205 19.4638 19.078 19.3179 19.1191 19.172C19.1602 19.0488 19.1931 18.9193 19.2259 18.798C19.3225 18.383 19.3636 17.9432 19.3636 17.4871C19.3636 17.3083 19.3554 17.1213 19.339 16.9425C19.3307 16.7473 19.3061 16.5521 19.2814 16.3569C19.265 16.1843 19.2342 16.0138 19.2013 15.835C19.1602 15.574 19.1027 15.3152 19.0369 15.0542L19.0143 14.9556C18.965 14.7768 18.9239 14.6062 18.8663 14.4275C18.704 13.8665 18.517 13.3199 18.3198 12.8083C18.2479 12.6048 18.1656 12.4096 18.0835 12.2144C17.9622 11.9206 17.8389 11.6535 17.7259 11.4007C17.6684 11.2856 17.6191 11.1808 17.5698 11.074C17.5143 10.9528 17.4567 10.8316 17.3992 10.7164C17.3581 10.6281 17.3108 10.5459 17.278 10.4637L16.9266 9.8144C16.8773 9.72604 16.9595 9.62124 17.056 9.64796L19.2547 10.2439H19.2609C19.265 10.2439 19.2671 10.2459 19.2691 10.2459L19.5588 10.326L19.8773 10.4164L19.9944 10.4493V9.14249C19.9944 8.51164 20.4999 8 21.1246 8C21.4369 8 21.7205 8.12738 21.9239 8.33493C22.1273 8.54249 22.2547 8.82604 22.2547 9.14249V11.0822L22.489 11.148C22.5075 11.1541 22.526 11.1624 22.5424 11.1747C22.5999 11.2178 22.6821 11.2816 22.7869 11.3596C22.8691 11.4254 22.9575 11.5055 23.0643 11.5877C23.276 11.7583 23.5287 11.9781 23.8061 12.2308C23.8801 12.2946 23.952 12.3603 24.0178 12.4261C24.3753 12.7589 24.776 13.1494 25.1582 13.5809C25.2651 13.7021 25.3699 13.8254 25.4767 13.9548C25.5835 14.0864 25.6966 14.2158 25.7952 14.3453C25.9247 14.5179 26.0644 14.6966 26.1856 14.8836C26.2432 14.972 26.3089 15.0624 26.3644 15.1508C26.5205 15.3871 26.6582 15.6316 26.7897 15.8761C26.8452 15.9891 26.9027 16.1124 26.952 16.2336C27.0979 16.5604 27.213 16.8932 27.287 17.2261C27.3096 17.298 27.326 17.3761 27.3343 17.446V17.4624C27.3589 17.5611 27.3671 17.6659 27.3753 17.7727C27.4082 18.1138 27.3918 18.4549 27.3178 18.798C27.287 18.944 27.2459 19.0816 27.1966 19.2275C27.1472 19.3672 27.0979 19.5131 27.0343 19.6508C26.911 19.9364 26.7651 20.222 26.5924 20.4892C26.537 20.5878 26.4712 20.6926 26.4055 20.7912C26.3335 20.896 26.2596 20.9947 26.1938 21.0912C26.1034 21.2145 26.0068 21.344 25.9082 21.459C25.8199 21.5803 25.7294 21.7015 25.6308 21.8084C25.4931 21.9707 25.3616 22.1248 25.2239 22.2728C25.1418 22.3693 25.0534 22.468 24.963 22.5563C24.8746 22.6549 24.7842 22.7433 24.702 22.8255C24.5643 22.9632 24.4493 23.07 24.3527 23.1584L24.1267 23.3659C24.0938 23.3947 24.0507 23.4111 24.0055 23.4111H22.2547V25.657H24.4575C24.9507 25.657 25.4191 25.4824 25.7972 25.1618C25.9267 25.0488 26.4918 24.5597 27.1596 23.8221C27.1822 23.7974 27.211 23.7789 27.2438 23.7707L33.3281 22.0118C33.4411 21.9789 33.5562 22.0652 33.5562 22.1844Z"
      fill="white" />
  </g>
  <defs>
    <clipPath id="clip0_22075_67632">
      <rect width="40" height="40" fill="white" transform="translate(0.5)" />
    </clipPath>
  </defs>
</svg>

<svg viewBox="0 0 41 40" fill="none" xmlns="http://www.w3.org/2000/svg"><g clip-path="url(#clip0_22075_67632)"><path d="M40.5 20c0 11.045-8.955 20-20 20S.5 31.045.5 20s8.955-20 20-20c11.047 0 20 8.955 20 20Z" fill="#2081E2"/><path d="m10.368 20.672.087-.136 5.203-8.139a.178.178 0 0 1 .312.023c.869 1.948 1.619 4.37 1.268 5.879-.15.62-.561 1.46-1.024 2.238-.06.113-.125.224-.195.33a.177.177 0 0 1-.148.078h-5.35a.178.178 0 0 1-.153-.273Z" fill="white"/><path d="M33.556 22.184v1.289c0 .074-.045.14-.11.168-.404.173-1.782.806-2.356 1.603-1.463 2.036-2.58 4.948-5.08 4.948H15.588c-3.695 0-6.689-3.004-6.689-6.711v-.12c0-.098.08-.178.18-.178h5.81c.115 0 .2.107.19.22-.042.378.028.764.207 1.116.345.7 1.06 1.138 1.833 1.138h2.876v-2.246h-2.843a.183.183 0 0 1-.148-.288c.03-.047.065-.096.102-.152.27-.382.654-.976 1.036-1.652.26-.456.514-.943.717-1.432.041-.088.074-.179.107-.267.055-.156.113-.302.154-.448.041-.123.074-.253.107-.374.097-.415.138-.855.138-1.31a6.05 6.05 0 0 0-.025-.546 7.074 7.074 0 0 0-.058-.585 6.049 6.049 0 0 0-.08-.522 8.785 8.785 0 0 0-.164-.78l-.023-.1c-.049-.178-.09-.349-.148-.527a19.926 19.926 0 0 0-.546-1.62c-.072-.203-.154-.398-.236-.594-.122-.293-.245-.56-.358-.813-.058-.115-.107-.22-.156-.327a11.923 11.923 0 0 0-.17-.358c-.042-.088-.09-.17-.122-.252l-.351-.65c-.05-.088.032-.193.129-.166l2.199.596h.006l.008.002.29.08.318.09.117.033V9.142c0-.63.506-1.142 1.13-1.142.313 0 .597.127.8.335.203.207.33.491.33.807v1.94l.235.066a.184.184 0 0 1 .053.027c.058.043.14.107.245.185.082.065.17.146.277.228.212.17.465.39.742.643.074.064.146.13.212.195.357.333.758.723 1.14 1.155.107.121.212.244.319.374.107.131.22.26.318.39.13.173.27.352.39.539.058.088.124.178.18.267.155.236.293.48.425.725.055.113.113.236.162.358.146.326.261.66.335.992.023.072.039.15.047.22v.016c.025.1.033.204.041.31a3.317 3.317 0 0 1-.178 1.456c-.05.14-.1.285-.163.423-.123.285-.269.571-.442.838a4.802 4.802 0 0 1-.186.302c-.072.105-.146.204-.212.3-.09.123-.187.253-.286.368a3.9 3.9 0 0 1-.277.35c-.138.162-.27.316-.407.464-.082.096-.17.195-.261.283-.088.099-.179.187-.261.27-.138.137-.253.244-.35.332l-.225.208a.184.184 0 0 1-.121.045h-1.751v2.246h2.203a2.06 2.06 0 0 0 1.34-.495c.129-.113.694-.602 1.362-1.34a.17.17 0 0 1 .084-.051l6.084-1.76a.18.18 0 0 1 .228.173Z" fill="white"/></g><defs><clipPath id="clip0_22075_67632"><rect width="40" height="40" fill="white" transform="translate(0.5)"/></clipPath></defs></svg>
